!!!COM: Anon.
!!!OTL: El Conde Olinas
!! Maria Cadilla de Martinez,
!! Juegos Y Canciones Infantiles de Puerto Rico
!! Talleres Graficos, Cas Baldrich, Brau 93, San Juan, P.R.
!! 1940.  Derechos reservados de la Autora
!! page 139
!! Allegretto
**kern
*clefG2
*k[f#]
*M3/4
{8d
8d
=
4.g
8d
8g
8a
=
4b
4b},
{8b
8cc
=
8dd
8dd
4cc
4b
=
2a},
{8a
8b
=
4.cc
8a
8b
8cc
=
4b
4b},
{8b
8b
=
4.a
8cc
8a
8f#
=
2g},
{8b
8dd
=
4cc
4cc
8dd
8cc
=
4b
4b},
{8b
8b
=
4.a
8cc
8b
8a
=
2g},
{8g
8g
=
4.f#
8a
8g
8e
=
2g}
==
*-
